printer-pos-alert.svg

<svg fill="currentColor" viewBox="0 0 24 24"><path d="M16 10H4c-1.1 0-2 .9-2 2v7h16v-7a2 2 0 0 0-2-2m0 4h-4v-2h4zm-1-5H5V4h10zm7-2v6h-2V7zm-2 8h2v2h-2z"/></svg>

<svg  viewBox="0 0 24 24" fill="currentColor"><path  d="M16 10H4C2.9 10 2 10.9 2 12V19H18V12C18 10.9 17.11 10 16 10M16 14H12V12H16V14M15 9H5V4H15V9M22 7V13H20V7H22M20 15H22V17H20V15Z"/></svg>
